X:21145 
T:NEW POLICEMAN (reel), The
B:DMI.0511
Z:Nordberg/Black
R:reel % A-B-A
%Q:1/4=180
M:C|
L:1/8
K:G
B|c2BG AGEG|DGBG AGEG|BcAB G2Bc|dBAc BGG:|
e|g2gf g2dg|egdg egde|g2gf g2d2|eaag eaa2|
dggf g2dg|egdg egde|g2ge a2ag|b2ba gfed|]
"repeat A part"

%%%

